gama.ui.shared/icons_svg/light/navigator/project.open2.svg

<svg height="25" viewBox="-110.266 -3712.949 25 25" width="25" xmlns="http://www.w3.org/2000/svg"><g fill="none"><path d="m-105.92599-3712.449h16.32c2.12078 0 3.84 1.7194 3.84 3.84v16.32c0 2.121-1.71922 3.84-3.84 3.84h-16.32c-2.12077 0-3.84-1.719-3.84-3.84v-16.32c0-2.1206 1.71923-3.84 3.84-3.84z" fill="#fff"/><path d="m-105.92599-3712.449h16.32c2.12078 0 3.84 1.7194 3.84 3.84v16.32c0 2.121-1.71922 3.84-3.84 3.84h-16.32c-2.12077 0-3.84-1.719-3.84-3.84v-16.32c0-2.1206 1.71923-3.84 3.84-3.84z" stroke="#000" stroke-linecap="round" stroke-linejoin="round" stroke-width=".25"/><g fill="#5c76a2"><path d="m-91.91084-3703.082v-.7997c0-.6627-.53726-1.2-1.2-1.2h-4.4c-.88366 0-1.6-.7163-1.6-1.6 0-.4418-.35818-.8-.8-.8h-5.2c-.66274 0-1.2.5373-1.2 1.2v8.8c0 .6627.53726 1.2 1.2 1.2h.8c.66274 0 1.2-.5373 1.2-1.2v-4c0-1.1045.89543-2 2-2h8c.45024 0 .86573.1487 1.2.3997zm0 1.6003c0-.6627-.53726-1.2-1.2-1.2h-8c-.66274 0-1.2.5373-1.2 1.2v4c0 .4503-.14878.8657-.39986 1.2h9.59986c.66274 0 1.2-.5373 1.2-1.2zm-13.2-6.8h5.2c.88365 0 1.6.7164 1.6 1.6 0 .4417.35817.8.8.8h4.4c1.10457 0 2 .8955 2 2v6.4c0 1.1047-.89543 2-2 2h-12c-1.10457 0-2-.8953-2-2v-8.8c0-1.1045.89543-2 2-2z"/><path d="m-97.12523-3695.156c.07337.0856.18238.14.3041.14s.23073-.0544.3041-.14zm-7.2959 0v.54c0 1.1045.89543 2 2 2h12c1.10457 0 2-.8955 2-2v-6.4c0-1.1046-.89543-2-2-2h-.31836v.8h.31836c.66274 0 1.2.537 1.2 1.2v6.4c0 .6627-.53726 1.2-1.2 1.2h-12c-.66274 0-1.2-.5373-1.2-1.2v-.54z"/></g></g></svg>

<?xml version="1.0" encoding="UTF-8" standalone="no"?>
<!DOCTYPE svg PUBLIC "-//W3C//DTD SVG 1.1//EN" "http://www.w3.org/Graphics/SVG/1.1/DTD/svg11.dtd">
<svg version="1.1" xmlns="http://www.w3.org/2000/svg" xmlns:xl="http://www.w3.org/1999/xlink" xmlns:dc="http://purl.org/dc/elements/1.1/" viewBox="-110.26599 -3712.949 25 25" width="25" height="25">
  <defs/>
  <g id="SOURCES" stroke-dasharray="none" fill="none" stroke="none" fill-opacity="1" stroke-opacity="1">
    <title>SOURCES</title>
    <g id="SOURCES_Calque_1">
      <title>Calque 1</title>
      <g id="Graphic_6396">
        <title>views/view.other</title>
        <path d="M -105.92599 -3712.449 L -89.60599 -3712.449 C -87.48521 -3712.449 -85.76599 -3710.7296 -85.76599 -3708.609 L -85.76599 -3692.289 C -85.76599 -3690.168 -87.48521 -3688.449 -89.60599 -3688.449 L -105.92599 -3688.449 C -108.04676 -3688.449 -109.76599 -3690.168 -109.76599 -3692.289 L -109.76599 -3708.609 C -109.76599 -3710.7296 -108.04676 -3712.449 -105.92599 -3712.449 Z" fill="white"/>
        <path d="M -105.92599 -3712.449 L -89.60599 -3712.449 C -87.48521 -3712.449 -85.76599 -3710.7296 -85.76599 -3708.609 L -85.76599 -3692.289 C -85.76599 -3690.168 -87.48521 -3688.449 -89.60599 -3688.449 L -105.92599 -3688.449 C -108.04676 -3688.449 -109.76599 -3690.168 -109.76599 -3692.289 L -109.76599 -3708.609 C -109.76599 -3710.7296 -108.04676 -3712.449 -105.92599 -3712.449 Z" stroke="black" stroke-linecap="round" stroke-linejoin="round" stroke-width=".25"/>
      </g>
      <g id="Group_6395">
        <g id="Graphic_6393">
          <path d="M -91.91084 -3703.082 L -91.91084 -3703.8817 C -91.91084 -3704.5444 -92.4481 -3705.0817 -93.11084 -3705.0817 L -97.51084 -3705.0817 C -98.3945 -3705.0817 -99.11084 -3705.798 -99.11084 -3706.6817 C -99.11084 -3707.1235 -99.46902 -3707.4817 -99.91084 -3707.4817 L -105.11084 -3707.4817 C -105.77358 -3707.4817 -106.31084 -3706.9444 -106.31084 -3706.2817 L -106.31084 -3697.4817 C -106.31084 -3696.819 -105.77358 -3696.2817 -105.11084 -3696.2817 L -104.31084 -3696.2817 C -103.6481 -3696.2817 -103.11084 -3696.819 -103.11084 -3697.4817 L -103.11084 -3701.4817 C -103.11084 -3702.5862 -102.21541 -3703.4817 -101.11084 -3703.4817 L -93.11084 -3703.4817 C -92.6606 -3703.4817 -92.24511 -3703.333 -91.91084 -3703.082 Z M -91.91084 -3701.4817 C -91.91084 -3702.1444 -92.4481 -3702.6817 -93.11084 -3702.6817 L -101.11084 -3702.6817 C -101.77358 -3702.6817 -102.31084 -3702.1444 -102.31084 -3701.4817 L -102.31084 -3697.4817 C -102.31084 -3697.0314 -102.45962 -3696.616 -102.7107 -3696.2817 L -93.11084 -3696.2817 C -92.4481 -3696.2817 -91.91084 -3696.819 -91.91084 -3697.4817 L -91.91084 -3701.4817 Z M -105.11084 -3708.2817 L -99.91084 -3708.2817 C -99.02719 -3708.2817 -98.31084 -3707.5653 -98.31084 -3706.6817 C -98.31084 -3706.24 -97.95267 -3705.8817 -97.51084 -3705.8817 L -93.11084 -3705.8817 C -92.00627 -3705.8817 -91.11084 -3704.9862 -91.11084 -3703.8817 L -91.11084 -3697.4817 C -91.11084 -3696.377 -92.00627 -3695.4817 -93.11084 -3695.4817 L -105.11084 -3695.4817 C -106.21541 -3695.4817 -107.11084 -3696.377 -107.11084 -3697.4817 L -107.11084 -3706.2817 C -107.11084 -3707.3862 -106.21541 -3708.2817 -105.11084 -3708.2817 Z" fill="#5c76a2"/>
        </g>
        <g id="Graphic_6394">
          <path d="M -97.12523 -3695.156 C -97.05186 -3695.0704 -96.94285 -3695.016 -96.82113 -3695.016 C -96.69941 -3695.016 -96.5904 -3695.0704 -96.51703 -3695.156 Z M -104.42113 -3695.156 L -104.42113 -3694.616 C -104.42113 -3693.5115 -103.5257 -3692.616 -102.42113 -3692.616 L -90.42113 -3692.616 C -89.31656 -3692.616 -88.42113 -3693.5115 -88.42113 -3694.616 L -88.42113 -3701.016 C -88.42113 -3702.1206 -89.31656 -3703.016 -90.42113 -3703.016 L -90.73949 -3703.016 L -90.73949 -3702.216 L -90.42113 -3702.216 C -89.75839 -3702.216 -89.22113 -3701.679 -89.22113 -3701.016 L -89.22113 -3694.616 C -89.22113 -3693.9533 -89.75839 -3693.416 -90.42113 -3693.416 L -102.42113 -3693.416 C -103.08387 -3693.416 -103.62113 -3693.9533 -103.62113 -3694.616 L -103.62113 -3695.156 Z" fill="#5c76a2"/>
        </g>
      </g>
    </g>
  </g>
</svg>
